lib/flags/gi-gibraltar.svg

<svg xmlns="http://www.w3.org/2000/svg" fill="none" aria-hidden="true" viewBox="0 0 42 30"><g id="Country=GI - Gibraltar, Size=sm (36x24)" filter="url(#filter0_dd_91_28070)"><g clip-path="url(#clip0_91_28070)"><g id="flag"><mask id="mask0_91_28070" width="36" height="24" x="3" y="2" maskUnits="userSpaceOnUse" style="mask-type:alpha"><rect id="mask" width="36" height="24" x="3" y="2" fill="white"/></mask><g mask="url(#mask0_91_28070)"><rect id="background" width="36" height="24" x="3" y="2" fill="#F7FCFF"/><g id="contents"><path id="bottom" fill="#C51918" fill-rule="evenodd" d="M3 18H39V26H3V18Z" clip-rule="evenodd"/><g id="mark"><g id="castle"><path id="Combined Shape" fill="#DB000B" fill-rule="evenodd" d="M22.5625 7H18.3125V11.6154H17.25V8.84616H13V11.6154H10.875V12.5385H11.9375V17.1538H28.9375V12.5385L30 12.5385V11.6154H27.875V8.84616H23.625V11.6154H22.5625V7ZM30 17.1538H10.875V18.0769H30V17.1538Z" clip-rule="evenodd"/><path id="Rectangle 24" fill="#272727" d="M14.0625 10.692C14.0625 10.1824 14.4756 9.76929 14.9852 9.76929V9.76929C15.4948 9.76929 15.9079 10.1824 15.9079 10.692V11.8001H14.0625V10.692Z"/><path id="Rectangle 24_2" fill="#272727" d="M24.6875 10.692C24.6875 10.1824 25.1006 9.76929 25.6102 9.76929V9.76929C26.1198 9.76929 26.5329 10.1824 26.5329 10.692V11.8001H24.6875V10.692Z"/><path id="Rectangle 24_3" fill="#272727" fill-rule="evenodd" d="M13.7632 15.6064C13.7632 14.9316 14.3102 14.3845 14.9851 14.3845V14.3845C15.6599 14.3845 16.2069 14.9316 16.2069 15.6064V17.3384H13.7632V15.6064Z" clip-rule="evenodd"/><path id="Rectangle 24_4" fill="#272727" d="M24.3882 15.6064C24.3882 14.9316 24.9352 14.3845 25.6101 14.3845V14.3845C26.2849 14.3845 26.8319 14.9316 26.8319 15.6064V17.3384H24.3882V15.6064Z"/><path id="Rectangle 24_5" fill="#272727" fill-rule="evenodd" d="M18.6313 15.8136C18.6313 14.9488 19.3324 14.2478 20.1971 14.2478V14.2478C21.0619 14.2478 21.7629 14.9488 21.7629 15.8136V18.3093H18.6313V15.8136Z" clip-rule="evenodd"/><path id="Rectangle 24_6" fill="#272727" d="M19.375 9.76889C19.375 9.2593 19.7881 8.84619 20.2977 8.84619V8.84619C20.8073 8.84619 21.2204 9.2593 21.2204 9.76889V11.8H19.375V9.76889Z"/><rect id="Rectangle 113" width="1.0625" height="0.923077" x="10.875" y="10.6924" fill="#DE1A23"/><path id="Combined Shape_2" fill="#DE1A23" fill-rule="evenodd" d="M12.5625 8H13.6875V9H12.5625V8ZM16.8579 8H17.9829V9H16.8579V8ZM16.2188 8H14.5312V9H16.2188V8Z" clip-rule="evenodd"/><path id="Combined Shape_3" fill="#DE1A23" fill-rule="evenodd" d="M23.3521 8H24.4771V9H23.3521V8ZM27.5455 8H28.6705V9H27.5455V8ZM26.8548 8H25.1673V9H26.8548V8Z" clip-rule="evenodd"/><path id="Combined Shape_4" fill="#DE1A23" fill-rule="evenodd" d="M18.5249 6.02271H17.3999V7.02271H18.5249V6.02271ZM20.2124 6.02271H19.0874V7.02271H20.2124V6.02271ZM20.7749 6.02271H21.8999V7.02271H20.7749V6.02271ZM23.5874 6.02271H22.4624V7.02271H23.5874V6.02271Z" clip-rule="evenodd"/><rect id="Rectangle 113_2" width="1.125" height="0.838696" x="28.8745" y="10.7747" fill="#DE1A23"/></g><g id="key"><path id="Path 69" fill="#E8AA00" fill-rule="evenodd" d="M20.3696 20.4533L23.4214 18.6794L20.1653 17.3259L16.9092 18.9895L20.3696 20.4533ZM19.178 18.8418L20.1765 18.247L21.2312 18.7577L20.2827 19.3091L19.178 18.8418Z" clip-rule="evenodd"/><path id="Rectangle 25" fill="#E8AA00" fill-rule="evenodd" d="M18.1602 23.0068H19.8181V24.1139V23.7402H18.7878V24.1139H18.1602V23.0068Z" clip-rule="evenodd"/><path id="Rectangle 26" fill="#E8AA00" fill-rule="evenodd" d="M19.668 20.1138H21.0751V24.1138H19.668V20.1138Z" clip-rule="evenodd"/></g></g></g></g></g></g></g><defs><filter id="filter0_dd_91_28070" width="42" height="30" x="0" y="0" color-interpolation-filters="sRGB" filterUnits="userSpaceOnUse"><feFlood flood-opacity="0" result="BackgroundImageFix"/><feColorMatrix in="SourceAlpha" result="hardAlpha" values="0 0 0 0 0 0 0 0 0 0 0 0 0 0 0 0 0 0 127 0"/><feOffset dy="1"/><feGaussianBlur stdDeviation="1"/><feColorMatrix values="0 0 0 0 0.0627451 0 0 0 0 0.0941176 0 0 0 0 0.156863 0 0 0 0.06 0"/><feBlend in2="BackgroundImageFix" result="effect1_dropShadow_91_28070"/><feColorMatrix in="SourceAlpha" result="hardAlpha" values="0 0 0 0 0 0 0 0 0 0 0 0 0 0 0 0 0 0 127 0"/><feOffset dy="1"/><feGaussianBlur stdDeviation="1.5"/><feColorMatrix values="0 0 0 0 0.0627451 0 0 0 0 0.0941176 0 0 0 0 0.156863 0 0 0 0.1 0"/><feBlend in2="effect1_dropShadow_91_28070" result="effect2_dropShadow_91_28070"/><feBlend in="SourceGraphic" in2="effect2_dropShadow_91_28070" result="shape"/></filter><clipPath id="clip0_91_28070"><rect width="36" height="24" x="3" y="2" fill="white" rx="2"/></clipPath></defs></svg>

<svg xmlns="http://www.w3.org/2000/svg" fill="none" aria-hidden="true" viewBox="0 0 42 30"><g filter="url(#a)"><g clip-path="url(#b)"><mask id="c" width="36" height="24" x="3" y="2" maskUnits="userSpaceOnUse" style="mask-type:alpha"><path fill="#fff" d="M3 2h36v24H3z"/></mask><g mask="url(#c)"><path fill="#F7FCFF" d="M3 2h36v24H3z"/><path fill="#C51918" fill-rule="evenodd" d="M3 18h36v8H3v-8Z" clip-rule="evenodd"/><path fill="#DB000B" fill-rule="evenodd" d="M22.563 7h-4.25v4.615H17.25V8.846H13v2.77h-2.125v.923h1.063v4.615h17v-4.615H30v-.924h-2.125V8.846h-4.25v2.77h-1.063V7ZM30 17.154H10.875v.923H30v-.923Z" clip-rule="evenodd"/><path fill="#272727" d="M14.063 10.692a.923.923 0 1 1 1.845 0V11.8h-1.845v-1.108Zm10.625 0a.923.923 0 1 1 1.845 0V11.8h-1.846v-1.108Z"/><path fill="#272727" fill-rule="evenodd" d="M13.763 15.606a1.222 1.222 0 1 1 2.444 0v1.732h-2.444v-1.732Z" clip-rule="evenodd"/><path fill="#272727" d="M24.388 15.606a1.222 1.222 0 1 1 2.444 0v1.732h-2.444v-1.732Z"/><path fill="#272727" fill-rule="evenodd" d="M18.631 15.814a1.566 1.566 0 1 1 3.132 0v2.495H18.63v-2.495Z" clip-rule="evenodd"/><path fill="#272727" d="M19.375 9.769a.923.923 0 1 1 1.845 0V11.8h-1.845V9.769Z"/><path fill="#DE1A23" d="M10.875 10.692h1.063v.923h-1.063z"/><path fill="#DE1A23" fill-rule="evenodd" d="M12.563 8h1.124v1h-1.124V8Zm4.295 0h1.125v1h-1.125V8Zm-.64 0h-1.687v1h1.688V8Zm7.134 0h1.125v1h-1.125V8Zm4.194 0h1.125v1h-1.125V8Zm-.691 0h-1.688v1h1.688V8Zm-8.33-1.977H17.4v1h1.125v-1Zm1.687 0h-1.125v1h1.125v-1Zm.563 0H21.9v1h-1.125v-1Zm2.812 0h-1.125v1h1.125v-1Z" clip-rule="evenodd"/><path fill="#DE1A23" d="M28.875 10.775H30v.839h-1.125z"/><g fill="#E8AA00" fill-rule="evenodd" clip-rule="evenodd"><path d="m20.37 20.453 3.051-1.774-3.256-1.353-3.256 1.663 3.46 1.464Zm-1.192-1.611.998-.595 1.055.51-.948.552-1.105-.467Zm-1.018 4.165h1.658v1.107-.374h-1.03v.374h-.628v-1.107Z"/><path d="M19.668 20.114h1.407v4h-1.407v-4Z"/></g></g></g></g><defs><clipPath id="b"><rect width="36" height="24" x="3" y="2" fill="#fff" rx="2"/></clipPath><filter id="a" width="42" height="30" x="0" y="0" color-interpolation-filters="sRGB" filterUnits="userSpaceOnUse"><feFlood flood-opacity="0" result="BackgroundImageFix"/><feColorMatrix in="SourceAlpha" result="hardAlpha" values="0 0 0 0 0 0 0 0 0 0 0 0 0 0 0 0 0 0 127 0"/><feOffset dy="1"/><feGaussianBlur stdDeviation="1"/><feColorMatrix values="0 0 0 0 0.0627451 0 0 0 0 0.0941176 0 0 0 0 0.156863 0 0 0 0.06 0"/><feBlend in2="BackgroundImageFix" result="effect1_dropShadow_91_28070"/><feColorMatrix in="SourceAlpha" result="hardAlpha" values="0 0 0 0 0 0 0 0 0 0 0 0 0 0 0 0 0 0 127 0"/><feOffset dy="1"/><feGaussianBlur stdDeviation="1.5"/><feColorMatrix values="0 0 0 0 0.0627451 0 0 0 0 0.0941176 0 0 0 0 0.156863 0 0 0 0.1 0"/><feBlend in2="effect1_dropShadow_91_28070" result="effect2_dropShadow_91_28070"/><feBlend in="SourceGraphic" in2="effect2_dropShadow_91_28070" result="shape"/></filter></defs></svg>
